themes/asg/static/images/sponsors/microsoft.svg

<svg width="138" height="30" viewBox="0 0 138 30" fill="none" xmlns="http://www.w3.org/2000/svg">
<path d="M48.758 17.3404L47.93 19.6181H47.838C47.746 19.0714 47.47 18.3426 47.01 17.3404L42.5939 6.40779H38.2698V23.9H41.1218V13.1496C41.1218 12.5119 41.1218 11.6919 41.1218 10.7809C41.1218 10.3253 41.0298 9.96091 41.0298 9.68759H41.1218C41.2138 10.3253 41.3978 10.872 41.4898 11.1453L46.826 23.9H48.85L54.0941 11.0542C54.1861 10.7809 54.2781 10.1431 54.4621 9.68759H54.5541C54.4621 10.9631 54.4621 12.1474 54.4621 12.8763V23.9911H57.4982V6.4989H53.3581L48.758 17.3404ZM60.3503 11.3275H63.2943V23.9H60.3503V11.3275ZM61.8223 5.95227C61.3623 5.95227 60.9023 6.13448 60.5343 6.40779C60.1663 6.68111 59.9823 7.13664 59.9823 7.59217C59.9823 8.04769 60.1663 8.50322 60.5343 8.77654C60.9023 9.04985 61.2703 9.23207 61.8223 9.23207C62.2823 9.23207 62.7423 9.04985 63.1103 8.77654C63.4783 8.50322 63.6623 8.04769 63.6623 7.59217C63.6623 7.13664 63.4783 6.68111 63.1103 6.40779C62.8343 6.13448 62.3743 5.95227 61.8223 5.95227ZM73.8746 11.1453C73.3226 11.0542 72.7705 10.9631 72.2185 10.9631C70.8385 10.9631 69.6425 11.2364 68.6305 11.8741C67.6184 12.4207 66.7904 13.2407 66.2384 14.334C65.6864 15.3361 65.4104 16.6116 65.4104 17.9782C65.4104 19.1626 65.6864 20.2558 66.2384 21.258C66.7904 22.169 67.5264 22.989 68.4464 23.5356C69.3665 24.0822 70.4705 24.3556 71.7585 24.3556C73.1386 24.3556 74.4266 24.0822 75.3466 23.5356V20.8024L75.2546 20.8936C74.7946 21.1669 74.3346 21.4402 73.7826 21.6224C73.2306 21.8046 72.7705 21.8957 72.4025 21.8957C71.2065 21.8957 70.2865 21.5313 69.6425 20.8024C68.9985 20.0736 68.6305 19.0714 68.6305 17.796C68.6305 16.5205 68.9985 15.5183 69.6425 14.6984C70.3785 13.9695 71.2985 13.6051 72.4025 13.6051C73.3226 13.6051 74.3346 13.8784 75.2546 14.5162L75.3466 14.6073V11.6919C74.8866 11.5097 74.4266 11.3275 73.8746 11.1453ZM83.6268 11.0542C82.8908 11.0542 82.2468 11.2364 81.6027 11.783C81.1427 12.1474 80.7747 12.7852 80.4987 13.514V11.3275H77.5547V23.9H80.4987V17.5227C80.4987 16.4294 80.6827 15.5183 81.2347 14.8806C81.6947 14.2429 82.3388 13.8784 83.1668 13.8784C83.4428 13.8784 83.7188 13.9695 84.0868 13.9695C84.3628 14.0606 84.6388 14.1518 84.8228 14.2429L84.9148 14.334V11.4186H84.8228C84.5468 11.1453 84.1788 11.0542 83.6268 11.0542ZM91.723 11.0542C89.6069 11.0542 87.9509 11.6919 86.8469 12.8763C85.6508 14.0606 85.0988 15.7005 85.0988 17.796C85.0988 19.7092 85.6508 21.3491 86.8469 22.4423C87.9509 23.5356 89.5149 24.1733 91.447 24.1733C93.471 24.1733 95.127 23.5356 96.2311 22.3512C97.4271 21.1669 97.9791 19.527 97.9791 17.5227C97.9791 15.5183 97.4271 13.9695 96.3231 12.7852C95.311 11.6008 93.655 11.0542 91.723 11.0542ZM94.115 20.6202C93.563 21.3491 92.735 21.6224 91.631 21.6224C90.5269 21.6224 89.6989 21.258 89.0549 20.5291C88.4109 19.8003 88.1349 18.7981 88.1349 17.5227C88.1349 16.1561 88.4109 15.1539 89.0549 14.4251C89.6989 13.6962 90.5269 13.3318 91.631 13.3318C92.643 13.3318 93.471 13.6962 94.115 14.334C94.667 15.0628 95.035 16.065 95.035 17.4315C94.943 18.8892 94.667 19.9825 94.115 20.6202ZM104.603 16.5205C103.683 16.1561 103.039 15.8828 102.763 15.6094C102.579 15.4272 102.395 15.0628 102.395 14.6984C102.395 14.334 102.487 14.0606 102.855 13.7873C103.223 13.6051 103.591 13.4229 104.143 13.4229C104.603 13.4229 105.155 13.514 105.707 13.6051C106.167 13.6962 106.627 13.9695 106.995 14.2429L107.087 14.334V11.6008H106.995C106.627 11.5097 106.167 11.3275 105.615 11.2364C105.063 11.1453 104.603 11.1453 104.143 11.1453C102.763 11.1453 101.567 11.5097 100.647 12.2385C99.7271 12.9674 99.2671 13.8784 99.2671 14.9717C99.2671 15.5183 99.3591 16.065 99.5431 16.5205C99.7271 16.976 100.003 17.3404 100.463 17.7049C100.831 17.9782 101.475 18.3426 102.303 18.707C102.947 18.9803 103.499 19.2537 103.867 19.4359C104.143 19.6181 104.419 19.8003 104.511 19.9825C104.603 20.1647 104.695 20.3469 104.695 20.7113C104.695 21.5313 104.051 21.9868 102.763 21.9868C102.303 21.9868 101.751 21.8957 101.107 21.7135C100.463 21.5313 99.9112 21.258 99.4511 20.8936L99.3591 20.8024V23.7178H99.4511C99.9112 23.9 100.371 24.0822 101.015 24.1733C101.659 24.2644 102.211 24.3556 102.763 24.3556C104.327 24.3556 105.523 23.9911 106.443 23.2623C107.363 22.5334 107.823 21.6224 107.823 20.438C107.823 19.6181 107.639 18.8892 107.087 18.2515C106.627 17.5226 105.799 16.976 104.603 16.5205ZM115.92 11.0542C113.803 11.0542 112.147 11.6919 111.043 12.8763C109.847 14.0606 109.295 15.7005 109.295 17.796C109.295 19.7092 109.847 21.3491 111.043 22.4423C112.147 23.5356 113.711 24.1733 115.643 24.1733C117.668 24.1733 119.324 23.5356 120.428 22.3512C121.624 21.1669 122.176 19.527 122.176 17.5227C122.176 15.5183 121.624 13.9695 120.52 12.7852C119.416 11.6008 117.852 11.0542 115.92 11.0542ZM118.22 20.6202C117.668 21.3491 116.84 21.6224 115.736 21.6224C114.631 21.6224 113.803 21.258 113.159 20.5291C112.515 19.8003 112.239 18.7981 112.239 17.5227C112.239 16.1561 112.515 15.1539 113.159 14.4251C113.803 13.6962 114.631 13.3318 115.736 13.3318C116.748 13.3318 117.576 13.6962 118.22 14.334C118.772 15.0628 119.14 16.065 119.14 17.4315C119.14 18.8892 118.772 19.9825 118.22 20.6202ZM138 13.6962V11.2364H134.964V7.50107H134.872L132.02 8.32101H131.928V11.1453H127.42V9.68759C127.42 8.95875 127.604 8.41211 127.88 8.04769C128.156 7.68327 128.708 7.50107 129.26 7.50107C129.628 7.50107 130.088 7.59216 130.548 7.77437L130.64 7.86548V5.31453H130.548C130.18 5.22343 129.628 5.13232 128.892 5.13232C127.972 5.13232 127.236 5.31454 126.5 5.67896C125.764 6.04338 125.304 6.59 124.844 7.31885C124.476 7.95658 124.292 8.77654 124.292 9.68759V11.4186H122.176V13.7873H124.292V23.9H127.328V13.7873H131.836V20.2558C131.836 22.8979 133.124 24.2645 135.608 24.2645C135.976 24.2645 136.436 24.1733 136.896 24.1733C137.356 24.0822 137.632 23.9911 137.816 23.9V21.4402L137.724 21.5313C137.54 21.6224 137.356 21.7135 137.08 21.8046C136.896 21.8957 136.62 21.8957 136.528 21.8957C135.976 21.8957 135.516 21.8046 135.24 21.4402C134.964 21.1669 134.872 20.6202 134.872 19.8003V13.8784H138V13.6962Z" fill="white"/>
<path d="M0 0.486816H13.9843V14.3348H0V0.486816Z" fill="white"/>
<path d="M15.5488 0.48584H29.5331V14.3339H15.5488V0.48584Z" fill="white"/>
<path d="M0 15.8828H13.9843V29.7308H0V15.8828Z" fill="white"/>
<path d="M15.5485 15.8828H29.5328V29.7308H15.5485V15.8828Z" fill="white"/>
</svg>

<svg width="138" height="30" fill="none" xmlns="http://www.w3.org/2000/svg"><path d="M48.758 17.34l-.828 2.278h-.092c-.092-.547-.368-1.275-.828-2.278L42.594 6.408H38.27V23.9h2.852V10.78c0-.455-.092-.82-.092-1.092h.092a8.2 8.2 0 0 0 .368 1.457L46.826 23.9h2.024l5.244-12.846c.092-.273.184-.91.368-1.366h.092c-.092 1.275-.092 2.46-.092 3.188v11.115h3.036V6.5h-4.14l-4.6 10.841zm11.592-6.012h2.944V23.9H60.35V11.328zm1.472-5.376c-.46 0-.92.182-1.288.456-.368.273-.552.729-.552 1.184 0 .456.184.911.552 1.185.368.273.736.455 1.288.455.46 0 .92-.182 1.288-.455.368-.274.552-.73.552-1.185 0-.455-.184-.91-.552-1.184-.276-.274-.736-.456-1.288-.456zm12.053 5.193c-.552-.09-1.105-.182-1.656-.182-1.38 0-2.576.273-3.588.911a5.652 5.652 0 0 0-2.393 2.46c-.552 1.002-.828 2.278-.828 3.644 0 1.185.276 2.278.828 3.28.552.911 1.288 1.731 2.208 2.278.92.546 2.025.82 3.313.82 1.38 0 2.668-.274 3.588-.82v-2.734l-.092.092c-.46.273-.92.546-1.472.728-.552.183-1.013.274-1.38.274-1.197 0-2.117-.365-2.76-1.094-.644-.728-1.013-1.73-1.013-3.006 0-1.276.369-2.278 1.013-3.098.736-.729 1.656-1.093 2.76-1.093.92 0 1.932.273 2.852.911l.092.091v-2.915c-.46-.182-.92-.364-1.472-.547zm9.752-.09c-.736 0-1.38.181-2.024.728-.46.364-.828 1.002-1.104 1.731v-2.186h-2.944V23.9h2.944v-6.377c0-1.094.184-2.005.736-2.642.46-.638 1.104-1.003 1.932-1.003.276 0 .552.091.92.091.276.092.552.183.736.274l.092.091v-2.915h-.092c-.276-.274-.644-.365-1.196-.365zm8.096 0c-2.116 0-3.772.637-4.876 1.821-1.196 1.185-1.748 2.825-1.748 4.92 0 1.913.552 3.553 1.748 4.646 1.104 1.094 2.668 1.731 4.6 1.731 2.024 0 3.68-.637 4.784-1.822 1.196-1.184 1.748-2.824 1.748-4.828 0-2.005-.552-3.553-1.656-4.738-1.012-1.184-2.668-1.73-4.6-1.73zm2.392 9.565c-.552.73-1.38 1.002-2.484 1.002s-1.932-.364-2.576-1.093c-.644-.729-.92-1.73-.92-3.006 0-1.367.276-2.37.92-3.098.644-.729 1.472-1.093 2.576-1.093 1.012 0 1.84.364 2.484 1.002.552.729.92 1.731.92 3.098-.092 1.457-.368 2.55-.92 3.188zm10.488-4.1c-.92-.364-1.564-.637-1.84-.91a1.385 1.385 0 0 1-.368-.912c0-.364.092-.637.46-.91.368-.183.736-.365 1.288-.365.46 0 1.012.091 1.564.182.46.091.92.364 1.288.638l.092.091v-2.733h-.092c-.368-.091-.828-.274-1.38-.365-.552-.09-1.012-.09-1.472-.09-1.38 0-2.576.364-3.496 1.092-.92.73-1.38 1.64-1.38 2.734 0 .546.092 1.093.276 1.548.184.456.46.82.92 1.185.368.273 1.012.638 1.84 1.002.644.273 1.196.547 1.564.729.276.182.552.364.644.547a1.4 1.4 0 0 1 .184.728c0 .82-.644 1.276-1.932 1.276-.46 0-1.012-.091-1.656-.273-.644-.183-1.196-.456-1.656-.82l-.092-.092v2.916h.092c.46.182.92.364 1.564.455.644.091 1.196.183 1.748.183 1.564 0 2.76-.365 3.68-1.094.92-.729 1.38-1.64 1.38-2.824 0-.82-.184-1.549-.736-2.186-.46-.73-1.288-1.276-2.484-1.732zm11.317-5.466c-2.117 0-3.773.638-4.877 1.822-1.196 1.185-1.748 2.825-1.748 4.92 0 1.913.552 3.553 1.748 4.646 1.104 1.094 2.668 1.731 4.6 1.731 2.025 0 3.681-.637 4.785-1.822 1.196-1.184 1.748-2.824 1.748-4.828 0-2.005-.552-3.553-1.656-4.738-1.104-1.184-2.668-1.73-4.6-1.73zm2.3 9.566c-.552.73-1.38 1.002-2.484 1.002-1.105 0-1.933-.364-2.577-1.093-.644-.729-.92-1.73-.92-3.006 0-1.367.276-2.37.92-3.098.644-.729 1.472-1.093 2.577-1.093 1.012 0 1.84.364 2.484 1.002.552.729.92 1.731.92 3.098 0 1.457-.368 2.55-.92 3.188zM138 13.696v-2.46h-3.036V7.501h-.092l-2.852.82h-.092v2.824h-4.508V9.688c0-.73.184-1.276.46-1.64.276-.365.828-.547 1.38-.547.368 0 .828.091 1.288.273l.092.091v-2.55h-.092a6.917 6.917 0 0 0-1.656-.183c-.92 0-1.656.183-2.392.547-.736.364-1.196.911-1.656 1.64-.368.638-.552 1.458-.552 2.369v1.73h-2.116v2.37h2.116V23.9h3.036V13.787h4.508v6.469c0 2.642 1.288 4.009 3.772 4.009.368 0 .828-.092 1.288-.092.46-.09.736-.182.92-.273v-2.46l-.092.091c-.184.091-.368.183-.644.274-.184.09-.46.09-.552.09-.552 0-1.012-.09-1.288-.455-.276-.273-.368-.82-.368-1.64v-5.922H138v-.182zM0 .487h13.984v13.848H0V.487zM15.549.486h13.984v13.848H15.55V.486zM0 15.883h13.984V29.73H0V15.883zm15.549 0h13.984V29.73H15.548V15.883z" fill="#fff"/></svg>
